brandFactory_export/2.Regular/Cambiar Plan_2Regular.svg

<?xml version="1.0" encoding="UTF-8"?>
<svg width="24px" height="24px" viewBox="0 0 24 24" version="1.1" xmlns="http://www.w3.org/2000/svg" xmlns:xlink="http://www.w3.org/1999/xlink">
    <title>2.Regular/Cambiar Plan_2Regular</title>
    <g id="Symbols" stroke="none" stroke-width="1" fill="none" fill-rule="evenodd">
        <g id="2.Regular/Cambiar-Plan_2Regular" fill="#5CB615" fill-rule="nonzero">
            <path d="M17.7176471,2.01008403 C17.8735294,2.01008403 18.0242647,2.06412815 18.1428309,2.16320903 C18.1535462,2.17360405 18.1649761,2.18355717 18.1760579,2.19388143 C18.1815718,2.1982763 18.1866218,2.20329412 18.1915966,2.20840336 L23.4352941,7.45210084 L23.4579305,7.47745173 C23.4647733,7.4849599 23.4714493,7.4926224 23.4779525,7.50043321 L23.4352941,7.45210084 C23.5154051,7.53010361 23.5730383,7.62661746 23.6048767,7.73169108 C23.6070817,7.74239781 23.6101415,7.75322728 23.6129314,7.76416163 C23.626885,7.81668714 23.6336134,7.87104838 23.6336134,7.92605042 L23.6336134,21.0991597 C23.6336134,21.3512605 23.610084,21.6773109 23.4151261,21.9495798 C23.2739496,22.1478992 22.994958,22.3865546 22.4638655,22.3865546 L21.9777311,22.3894958 L21.9777311,22.3894958 L11.4689076,22.389916 C10.6588235,22.389916 10.1546218,21.8823529 10.1546218,21.0689076 L10.1546218,3.31092437 C10.1546218,2.51092437 10.6588235,2.01344538 11.4655462,2.01008403 L17.7176471,2.01008403 Z M4.96806723,10.5310924 C5.14621849,10.5310924 5.31764706,10.6016807 5.44537815,10.7260504 L8.35966387,13.6403361 C8.48739496,13.7647059 8.55798319,13.9361345 8.55798319,14.1142857 L8.55798319,21.3512605 C8.55798319,21.9462185 8.14453782,22.3596639 7.54957983,22.3596639 L4.3394958,22.3663866 L1.02184874,22.3663866 C0.410084034,22.3663866 1.27378108e-10,21.9529412 1.27378108e-10,21.3378151 L1.27378108e-10,11.5495798 C1.27378108e-10,10.9512605 0.420168067,10.5310924 1.02184874,10.5310924 L4.96806723,10.5310924 Z M17.045,3.35708403 L11.4991597,3.35798319 L11.4991597,21.0453782 L22.2890756,21.0453782 L22.289,8.60108403 L20.3394958,8.60168067 C19.3512605,8.60168067 18.5210084,8.29243697 17.9361345,7.70756303 C17.3512605,7.12268908 17.0453782,6.29243697 17.0453782,5.30756303 L17.045,3.35708403 Z M4.097,11.875084 L1.34453782,11.8756303 L1.34453782,21.0218487 L7.21008403,21.0218487 L7.21,14.991084 L6.34957983,14.9915966 C5.6302521,14.9915966 5.06890756,14.7932773 4.68235294,14.4067227 C4.29579832,14.0201681 4.09747899,13.4588235 4.09747899,12.7394958 L4.097,11.875084 Z M6.14117647,19.1563025 C6.42016807,19.1563025 6.64537815,19.3815126 6.64537815,19.6605042 C6.64537815,19.9394958 6.42016807,20.1647059 6.14117647,20.1647059 L2.42689076,20.1647059 C2.14789916,20.1647059 1.92268908,19.9394958 1.92268908,19.6605042 C1.92268908,19.3815126 2.14789916,19.1563025 2.42689076,19.1563025 L6.14117647,19.1563025 Z M20.3798319,17.0957983 C20.7495798,17.0957983 21.0521008,17.3983193 21.0521008,17.7680672 C21.0521008,18.1378151 20.7495798,18.4403361 20.3798319,18.4403361 L13.4084034,18.4403361 C13.0386555,18.4403361 12.7361345,18.1378151 12.7361345,17.7680672 C12.7361345,17.3983193 13.0386555,17.0957983 13.4084034,17.0957983 L20.3798319,17.0957983 Z M6.14117647,17.4084034 C6.42016807,17.4084034 6.64537815,17.6336134 6.64537815,17.912605 C6.64537815,18.1915966 6.42016807,18.4168067 6.14117647,18.4168067 L2.42689076,18.4168067 C2.14789916,18.4168067 1.92268908,18.1915966 1.92268908,17.912605 C1.92268908,17.6336134 2.14789916,17.4084034 2.42689076,17.4084034 L6.14117647,17.4084034 Z M6.14117647,15.6605042 C6.42016807,15.6605042 6.64537815,15.8857143 6.64537815,16.1647059 C6.64537815,16.4436975 6.42016807,16.6689076 6.14117647,16.6689076 L2.42689076,16.6689076 C2.14789916,16.6689076 1.92268908,16.4436975 1.92268908,16.1647059 C1.92268908,15.8857143 2.14789916,15.6605042 2.42689076,15.6605042 L6.14117647,15.6605042 Z M20.3798319,13.7915966 C20.7495798,13.7915966 21.0521008,14.0941176 21.0521008,14.4638655 C21.0521008,14.8336134 20.7495798,15.1361345 20.3798319,15.1361345 L13.4084034,15.1361345 C13.0386555,15.1361345 12.7361345,14.8336134 12.7361345,14.4638655 C12.7361345,14.0941176 13.0386555,13.7915966 13.4084034,13.7915966 L20.3798319,13.7915966 Z M6.797,13.983084 L5.105,12.291084 L5.10588235,12.7394958 C5.10588235,13.6235294 5.46554622,13.9831933 6.34957983,13.9831933 L6.797,13.983084 Z M20.3798319,10.507563 C20.7495798,10.507563 21.0521008,10.810084 21.0521008,11.1798319 C21.0521008,11.5495798 20.7495798,11.8521008 20.3798319,11.8521008 L13.4084034,11.8521008 C13.0386555,11.8521008 12.7361345,11.5495798 12.7361345,11.1798319 C12.7361345,10.810084 13.0386555,10.507563 13.4084034,10.507563 L20.3798319,10.507563 Z M6.91428571,3.90588235 C6.94789916,3.93613445 7.7512605,4.61848739 8.05042017,4.91764706 C8.49747899,5.36806723 8.50084034,5.92268908 8.05714286,6.36638655 C7.90588235,6.51764706 7.0789916,7.22689076 6.91764706,7.36806723 C6.82352941,7.44201681 6.7092437,7.48571429 6.58823529,7.48571429 C6.3092437,7.48571429 6.08403361,7.2605042 6.08403361,6.98151261 C6.08403361,6.83361345 6.14789916,6.69579832 6.25882353,6.59831933 C6.43347594,6.44897886 6.61813519,6.28963155 6.78517127,6.14449851 L5.9092437,6.14453782 C5.08571429,6.14453782 4.47058824,6.33277311 4.08403361,6.70588235 C3.68403361,7.09243697 3.4789916,7.7210084 3.4789916,8.57815126 L3.4789916,9.57647059 C3.4789916,9.85546218 3.25378151,10.0806723 2.97478992,10.0806723 C2.69579832,10.0806723 2.47058824,9.85546218 2.47058824,9.57647059 L2.47058824,8.57815126 C2.47058824,7.43865546 2.77647059,6.56134454 3.38487395,5.97983193 C3.96638655,5.42184874 4.81344538,5.13613445 5.9092437,5.13613445 L6.7986349,5.13596095 C6.52568554,4.89673937 6.26600287,4.67608691 6.26218487,4.67226891 C6.05042017,4.4907563 6.02352941,4.17478992 6.20504202,3.96302521 C6.38655462,3.7512605 6.70252101,3.72436975 6.91428571,3.90588235 Z M21.338,7.25708403 L18.389,4.30808403 L18.389916,5.30756303 C18.389916,5.92941176 18.5613445,6.4302521 18.887395,6.75630252 C19.2134454,7.08235294 19.7142857,7.25714286 20.3394958,7.25714286 L21.338,7.25708403 Z" id="Cambiar-Plan_2Regular"></path>
        </g>
    </g>
</svg>

<svg width="24" height="24" viewBox="0 0 24 24" xmlns="http://www.w3.org/2000/svg"><path d="M17.718 2.01c.156 0 .306.054.425.153l.033.03a.17.17 0 01.016.015l5.243 5.244.023.025a.68.68 0 01.02.023l-.043-.048c.08.078.138.175.17.28l.008.032a.63.63 0 01.02.162V21.1c0 .252-.023.578-.218.85-.141.199-.42.438-.951.438l-.486.002h-10.51c-.81 0-1.313-.507-1.313-1.32V3.31c0-.8.504-1.298 1.31-1.3h6.253zm-12.75 8.521c.178 0 .35.07.477.195L8.36 13.64a.66.66 0 01.198.474v7.237c0 .595-.413 1.009-1.008 1.009l-3.21.006H1.021C.41 22.366 0 21.953 0 21.338V11.55c0-.599.42-1.019 1.022-1.019h3.946zm12.077-7.174l-5.546.001v17.687h10.79V8.601h-1.95c-.988 0-1.818-.309-2.403-.893-.585-.585-.89-1.416-.89-2.4l-.001-1.95zM4.097 11.875H1.345v9.147H7.21v-6.03h-.86c-.72 0-1.281-.199-1.668-.585-.386-.387-.585-.948-.585-1.668v-.864zm2.044 7.281a.504.504 0 110 1.009H2.427a.504.504 0 110-1.009H6.14zm14.239-2.06c.37 0 .672.302.672.672 0 .37-.302.672-.672.672h-6.972a.674.674 0 01-.672-.672c0-.37.303-.672.672-.672h6.972zm-14.239.312a.504.504 0 110 1.009H2.427a.504.504 0 110-1.009H6.14zm0-1.747a.504.504 0 110 1.008H2.427a.504.504 0 110-1.008H6.14zm14.239-1.87c.37 0 .672.303.672.673 0 .37-.302.672-.672.672h-6.972a.674.674 0 01-.672-.672c0-.37.303-.672.672-.672h6.972zm-13.583.192l-1.692-1.692v.448c0 .885.36 1.244 1.245 1.244h.447zm13.583-3.475c.37 0 .672.302.672.672 0 .37-.302.672-.672.672h-6.972a.674.674 0 01-.672-.672c0-.37.303-.672.672-.672h6.972zM6.914 3.906c.034.03.837.712 1.136 1.012.447.45.45 1.005.007 1.448-.151.152-.978.86-1.14 1.002a.533.533 0 01-.329.118.504.504 0 01-.33-.888c.175-.149.36-.308.527-.454H5.91c-.823 0-1.438.189-1.825.562-.4.386-.605 1.015-.605 1.872v.998a.504.504 0 11-1.008 0v-.998c0-1.14.305-2.017.914-2.598.581-.558 1.428-.844 2.524-.844h.89c-.273-.24-.533-.46-.537-.464a.502.502 0 01-.057-.709.502.502 0 01.71-.057zm14.424 3.351l-2.949-2.949v1c0 .621.172 1.122.498 1.448.326.326.827.501 1.452.501h.999z" fill="#5CB615" fill-rule="nonzero"/></svg>
